public/images/poses-sm/Bow.svg

<svg width="800" height="900" fill="none" xmlns="http://www.w3.org/2000/svg"><path d="M413.68 684.949s-70.654 6.674-99.098-3.67c-40.373-14.681-187.185-201.866-183.514-234.897 3.67-33.031 29.362-40.372 29.362-40.372l161.492-95.427s117.449-99.098 135.8-91.758c18.352 7.341-36.702 40.373-33.032 55.055 3.67 14.681-14.681 29.362-22.021 29.362-7.341 0-25.692 3.67-36.703 18.352-11.011 14.681-84.416 106.439-143.141 124.79 0 0 73.406 62.393 88.087 77.074 0 0 62.394-11.011 110.108 47.714 47.714 58.723-7.34 113.777-7.34 113.777Z" fill="#fff" stroke="#000" stroke-width="5" stroke-miterlimit="10"/><path d="M413.68 684.949s-70.654 6.674-99.098-3.67c-40.373-14.681-187.185-201.866-183.514-234.897 3.67-33.031 29.362-40.372 29.362-40.372l161.492-95.427s117.449-99.098 135.8-91.758c18.352 7.341-36.702 40.373-33.032 55.055 3.67 14.681-14.681 29.362-22.021 29.362-7.341 0-25.692 3.67-36.703 18.352-11.011 14.681-84.416 106.439-143.141 124.79 0 0 73.406 62.393 88.087 77.074 0 0 62.394-11.011 110.108 47.714 47.714 58.723-7.34 113.777-7.34 113.777Z" stroke="#000" stroke-width="5" stroke-miterlimit="10"/><path d="M598.458 440.798c-11.032-4.678-13.553-16.855-23.184-26.455-15.291-15.259-8.444-50.191 10.456-65.47 24.954-20.173 94.41 71.946 81.772 86.104-7.492 8.384-27.932 14.383-49.671 9.387-6.986-1.606-19.373-3.566-19.373-3.566Z" fill="#fff" stroke="#000" stroke-width="5" stroke-miterlimit="10"/><path d="M598.458 440.798c-11.032-4.678-13.553-16.855-23.184-26.455-15.291-15.259-8.444-50.191 10.456-65.47 24.954-20.173 94.41 71.946 81.772 86.104-7.492 8.384-27.932 14.383-49.671 9.387-6.986-1.606-19.373-3.566-19.373-3.566Z" stroke="#000" stroke-width="5" stroke-miterlimit="10"/><path d="M599.451 351.421c12.634 12.9 9.366 40.764.092 46.804-9.269 6.046-14.982 11.351-13.419 15.029 1.559 3.68 6.02 7.881 8.616 5.939 2.599-1.938 6.609-8.334 10.899-3.66 4.287 4.677 7.63 24.072 1.379 36.657-6.254 12.579-25.229 16.515-42.212 5.3-16.975-11.202-22.602-44.455-17.9-69.767 2.27-12.204 8.467-23.652 16.097-30.699 12.59-11.621 24.049-18.263 36.448-5.603Z" fill="#100200" stroke="#000" stroke-width="5" stroke-miterlimit="10"/><path d="M557.221 413.799c-2.107 12.378-1.19 26.517-15.327 37.269-14.138 10.749-24.139 2.353-31.784 11.414-7.645 9.057-14.416 42.66-29.514 51.944-15.101 9.287-19.186-4.705-35.91 5.172-14.313 8.444.067 37.208-33.284 52.204-15.995 7.191-65.751-101.775-44.304-111.657 21.446-9.88 37.138 3.366 48.468-3.767 11.333-7.126 8.38-27.12 24.152-35.636 22.113-11.939 35.379 12.377 51.839 3.323 13.538-7.445 11.696-18.417 27.89-26.643 16.196-8.232 37.774 16.377 37.774 16.377Z" fill="#100200" stroke="#000" stroke-width="5" stroke-miterlimit="10"/><path d="M603.576 423.317c-2.082 12.936-8.083 25.004-17.319 34.294-6.731 6.77-15.034 13.333-23.936 16.297-22.022 7.341-58.725 62.394-66.065 73.404-7.34 11.011-47.714 36.703-73.405 25.693 0 0 23.857 53.219-12.847 111.943l109.847-1.742a30.698 30.698 0 0 0 11.516-2.442c20.789-8.818 91.319-41.449 100.689-82.066 11.01-47.714-7.341-73.406 14.681-132.131 22.021-58.722 25.692-143.139 22.021-154.15-3.67-11.012-132.13-80.746-132.13-80.746s-40.373-25.693-58.724-18.352c-18.351 7.341-29.362 11.011-14.681 22.022s66.065 22.022 66.065 22.022l89.22 68.628a11.875 11.875 0 0 1 4.28 12.33c-4.481 17.677-15.506 62.015-19.212 84.996Z" fill="#fff" stroke="#000" stroke-width="5" stroke-miterlimit="10"/><path d="M603.576 423.317c-2.082 12.936-8.083 25.004-17.319 34.294-6.731 6.77-15.034 13.333-23.936 16.297-22.022 7.341-58.725 62.394-66.065 73.404-7.34 11.011-47.714 36.703-73.405 25.693 0 0 23.857 53.219-12.847 111.943l109.847-1.742a30.698 30.698 0 0 0 11.516-2.442c20.789-8.818 91.319-41.449 100.689-82.066 11.01-47.714-7.341-73.406 14.681-132.131 22.021-58.722 25.692-143.139 22.021-154.15-3.67-11.012-132.13-80.746-132.13-80.746s-40.373-25.693-58.724-18.352c-18.351 7.341-29.362 11.011-14.681 22.022s66.065 22.022 66.065 22.022l89.22 68.628a11.875 11.875 0 0 1 4.28 12.33c-4.481 17.677-15.506 62.015-19.212 84.996Z" stroke="#000" stroke-width="5" stroke-miterlimit="10"/><path d="M325.824 307.315s.452 27.291 27.634 29.957Z" fill="#fff"/><path d="M325.824 307.315s.452 27.291 27.634 29.957" stroke="#000" stroke-width="5" stroke-miterlimit="10"/><path d="M325.824 307.315s.452 27.291 27.634 29.957" stroke="#000" stroke-width="5" stroke-miterlimit="10"/><path d="M545.32 269.692s19.177-4.007 17.173-23.767Z" fill="#fff"/><path d="M545.32 269.692s19.177-4.007 17.173-23.767" stroke="#000" stroke-width="5" stroke-miterlimit="10"/><path d="M545.32 269.692s19.177-4.007 17.173-23.767" stroke="#000" stroke-width="5" stroke-miterlimit="10"/></svg>

<svg width="800" height="900" viewBox="0 0 800 900" fill="none" xmlns="http://www.w3.org/2000/svg">
<path d="M413.68 684.949C413.68 684.949 343.026 691.623 314.582 681.279C274.209 666.598 127.397 479.413 131.068 446.382C134.738 413.351 160.43 406.01 160.43 406.01L321.922 310.583C321.922 310.583 439.371 211.485 457.722 218.825C476.074 226.166 421.02 259.198 424.69 273.88C428.36 288.561 410.009 303.242 402.669 303.242C395.328 303.242 376.977 306.912 365.966 321.594C354.955 336.275 281.55 428.033 222.825 446.384C222.825 446.384 296.231 508.777 310.912 523.458C310.912 523.458 373.306 512.447 421.02 571.172C468.734 629.895 413.68 684.949 413.68 684.949Z" fill="white" stroke="black" stroke-width="5" stroke-miterlimit="10"/>
<path d="M413.68 684.949C413.68 684.949 343.026 691.623 314.582 681.279C274.209 666.598 127.397 479.413 131.068 446.382C134.738 413.351 160.43 406.01 160.43 406.01L321.922 310.583C321.922 310.583 439.371 211.485 457.722 218.825C476.074 226.166 421.02 259.198 424.69 273.88C428.36 288.561 410.009 303.242 402.669 303.242C395.328 303.242 376.977 306.912 365.966 321.594C354.955 336.275 281.55 428.033 222.825 446.384C222.825 446.384 296.231 508.777 310.912 523.458C310.912 523.458 373.306 512.447 421.02 571.172C468.734 629.895 413.68 684.949 413.68 684.949Z" stroke="black" stroke-width="5" stroke-miterlimit="10"/>
<path d="M598.458 440.798C587.426 436.12 584.905 423.943 575.274 414.343C559.983 399.084 566.83 364.152 585.73 348.873C610.684 328.7 680.14 420.819 667.502 434.977C660.01 443.361 639.57 449.36 617.831 444.364C610.845 442.758 598.458 440.798 598.458 440.798Z" fill="white" stroke="black" stroke-width="5" stroke-miterlimit="10"/>
<path d="M598.458 440.798C587.426 436.12 584.905 423.943 575.274 414.343C559.983 399.084 566.83 364.152 585.73 348.873C610.684 328.7 680.14 420.819 667.502 434.977C660.01 443.361 639.57 449.36 617.831 444.364C610.845 442.758 598.458 440.798 598.458 440.798Z" stroke="black" stroke-width="5" stroke-miterlimit="10"/>
<path d="M599.451 351.421C612.085 364.321 608.817 392.185 599.543 398.225C590.274 404.271 584.561 409.576 586.124 413.254C587.683 416.934 592.144 421.135 594.74 419.193C597.339 417.255 601.349 410.859 605.639 415.533C609.926 420.21 613.269 439.605 607.018 452.19C600.764 464.769 581.789 468.705 564.806 457.49C547.831 446.288 542.204 413.035 546.906 387.723C549.176 375.519 555.373 364.071 563.003 357.024C575.593 345.403 587.052 338.761 599.451 351.421Z" fill="#100200" stroke="black" stroke-width="5" stroke-miterlimit="10"/>
<path d="M557.221 413.799C555.114 426.177 556.031 440.316 541.894 451.068C527.756 461.817 517.755 453.421 510.11 462.482C502.465 471.539 495.694 505.142 480.596 514.426C465.495 523.713 461.41 509.721 444.686 519.598C430.373 528.042 444.753 556.806 411.402 571.802C395.407 578.993 345.651 470.027 367.098 460.145C388.544 450.265 404.236 463.511 415.566 456.378C426.899 449.252 423.946 429.258 439.718 420.742C461.831 408.803 475.097 433.119 491.557 424.065C505.095 416.62 503.253 405.648 519.447 397.422C535.643 389.19 557.221 413.799 557.221 413.799Z" fill="#100200" stroke="black" stroke-width="5" stroke-miterlimit="10"/>
<path d="M603.576 423.317C601.494 436.253 595.493 448.321 586.257 457.611C579.526 464.381 571.223 470.944 562.321 473.908C540.299 481.249 503.596 536.302 496.256 547.312C488.916 558.323 448.542 584.015 422.851 573.005C422.851 573.005 446.708 626.224 410.004 684.948L519.851 683.206C523.819 683.147 527.718 682.308 531.367 680.764C552.156 671.946 622.686 639.315 632.056 598.698C643.066 550.984 624.715 525.292 646.737 466.567C668.758 407.845 672.429 323.428 668.758 312.417C665.088 301.405 536.628 231.671 536.628 231.671C536.628 231.671 496.255 205.978 477.904 213.319C459.553 220.66 448.542 224.33 463.223 235.341C477.904 246.352 529.288 257.363 529.288 257.363L618.508 325.991C622.267 328.887 623.952 333.719 622.788 338.321C618.307 355.998 607.282 400.336 603.576 423.317Z" fill="white" stroke="black" stroke-width="5" stroke-miterlimit="10"/>
<path d="M603.576 423.317C601.494 436.253 595.493 448.321 586.257 457.611C579.526 464.381 571.223 470.944 562.321 473.908C540.299 481.249 503.596 536.302 496.256 547.312C488.916 558.323 448.542 584.015 422.851 573.005C422.851 573.005 446.708 626.224 410.004 684.948L519.851 683.206C523.819 683.147 527.718 682.308 531.367 680.764C552.156 671.946 622.686 639.315 632.056 598.698C643.066 550.984 624.715 525.292 646.737 466.567C668.758 407.845 672.429 323.428 668.758 312.417C665.088 301.405 536.628 231.671 536.628 231.671C536.628 231.671 496.255 205.978 477.904 213.319C459.553 220.66 448.542 224.33 463.223 235.341C477.904 246.352 529.288 257.363 529.288 257.363L618.508 325.991C622.267 328.887 623.952 333.719 622.788 338.321C618.307 355.998 607.282 400.336 603.576 423.317Z" stroke="black" stroke-width="5" stroke-miterlimit="10"/>
<path d="M325.824 307.315C325.824 307.315 326.276 334.606 353.458 337.272Z" fill="white"/>
<path d="M325.824 307.315C325.824 307.315 326.276 334.606 353.458 337.272" stroke="black" stroke-width="5" stroke-miterlimit="10"/>
<path d="M325.824 307.315C325.824 307.315 326.276 334.606 353.458 337.272" stroke="black" stroke-width="5" stroke-miterlimit="10"/>
<path d="M545.32 269.692C545.32 269.692 564.497 265.685 562.493 245.925Z" fill="white"/>
<path d="M545.32 269.692C545.32 269.692 564.497 265.685 562.493 245.925" stroke="black" stroke-width="5" stroke-miterlimit="10"/>
<path d="M545.32 269.692C545.32 269.692 564.497 265.685 562.493 245.925" stroke="black" stroke-width="5" stroke-miterlimit="10"/>
</svg>
